src/assets/icon-closed-issue.svg

<svg xmlns="http://www.w3.org/2000/svg" xmlns:xlink="http://www.w3.org/1999/xlink" preserveAspectRatio="xMidYMid" width="15.963" height="15.963" viewBox="0 0 510 510">
  <defs>
    <style>
      .cls-1 {
        fill: #fff;
        fill-rule: evenodd;
      }
    </style>
  </defs>
  <path d="M150.450,206.550 L114.750,242.250 L229.500,357.000 L484.500,102.000 L448.800,66.300 L229.500,285.600 L150.450,206.550 ZM459.000,255.000 C459.000,367.200 367.200,459.000 255.000,459.000 C142.800,459.000 51.000,367.200 51.000,255.000 C51.000,142.800 142.800,51.000 255.000,51.000 C275.400,51.000 293.250,53.550 311.100,58.650 L351.900,17.850 C321.300,7.650 288.150,-0.000 255.000,-0.000 C114.750,-0.000 -0.000,114.750 -0.000,255.000 C-0.000,395.250 114.750,510.000 255.000,510.000 C395.250,510.000 510.000,395.250 510.000,255.000 L459.000,255.000 Z" class="cls-1"/>
</svg>

<svg xmlns="http://www.w3.org/2000/svg" width="15.963" height="15.963" preserveAspectRatio="xMidYMid" viewBox="0 0 510 510">
  <path d="M150.45 206.55l-35.7 35.7L229.5 357l255-255-35.7-35.7-219.3 219.3-79.05-79.05zM459 255c0 112.2-91.8 204-204 204S51 367.2 51 255 142.8 51 255 51c20.4 0 38.25 2.55 56.1 7.65l40.8-40.8C321.3 7.65 288.15 0 255 0 114.75 0 0 114.75 0 255s114.75 255 255 255 255-114.75 255-255h-51z" class="cls-1"/>
</svg>
